!!!OTL: ES STAND DIE HERBERG AN DEM RHEIN
!!!ARE: Europa, Mitteleuropa, Deutschland, Herzogtum Berg
!!!SCT: Z0107
!!!YEM: Copyright 1995, estate of Helmut Schaffrath.
**kern
*ICvox
*Ivox
*M2/4
*k[b-]
*d:
{8A
=1
8.d
16e
8fn
8g
=2
16a
16b-
16a
16g
8a
8r}
=3
{8fn
16fn
16g
8a
8a
=4
8d
8d
4g}
=5
{8e
8e
8fn
8e
=6
4e
8d
8r}
=7
{8e
16e
16e
8fn
16e
16e
=8
8e
8d
8d}
{8cn
=9
8e
16e
16e
8fn
8a
=10
8a
8g#
8a}
==
!!!AGN: Sagen - Lied, Romanze
!!!ONB: ESAC (Essen Associative Code) Database: ZUCCAL
!!!AMT: simple duple
!!!AIN: vox
!!!EED: Helmut Schaffrath
!!!EEV: 1.0
*-
